!!!!SEGMENT: pl-kk--kk-i-31--004_anonim--missa-sanctus.krn
!!!cenid: 17xx:2234
!!!COM: Anonim
!!!COM-rismID: pe30004985
!!!CDT:
!!!CNT:
!!!OPR: Missa
!!!OTL: Sanctus
!!!OMV: 004
!!!PDT:
!!!AGN: Sacred; Mass
!!!SMS-siglum: PL-Kk
!!!SMS-shelfmark: Kk.I.31
!!!SMS-shelfwork: 001-004 M
!!!SMS-variant:
!!!SMS-altvar:
!!!NIFC-rismSourceID: 1001156550
!!!NIFC-rismChildID: 1001156550
!!!NIFC-islandoraID: pl-kk:15489
!!!URL-pdf-islandora: https://repozytorium.nifc.pl/islandora/object/pl-kk%3A15489/datastream/PDF/view
!!!URL-scan: https://polish.musicsources.pl/pl/lokalizacje/galeria/rekopisy/7124/1 @EN{Scan on Polish Music Sources Website} @PL{Skany w portalu Dziedzictwo Muzyki Polskiej w otwartym dostępie}
!!!IIIF:
!!!ONB-nifc: UWAGA: części Mszy: 1. Kyrie, 2. Et in terra, 3. Patrem, 4. Sanctus, 5. Agnus Dei
!!!AIN: 1 alto 2 empty 1 tenor 1 vox
!!!key:
**kern	**text	**dynam	**kern	**text	**kern	**text	**kern	**text	**kern	**text
*part5	*part5	*part5	*part4	*part4	*part3	*part3	*part2	*part2	*part1	*part1
*staff5	*staff5	*	*staff4	*staff4	*staff3	*staff3	*staff2	*staff2	*staff1	*staff1
*Iempty	*	*	*Iempty	*	*Itenor	*	*Ialto	*	*Ivox	*
*I"Baſso Ripieno.	*	*	*I"Baſso.	*	*I"Tenore	*	*I"Alto	*	*I"Canto	*
*I'B rip	*	*	*I'B	*	*I'T	*	*I'A	*	*I'C	*
*clefF4	*	*	*clefF4	*	*clefC4	*	*clefC3	*	*clefC1	*
*k[]	*	*	*k[]	*	*k[]	*	*k[]	*	*k[]	*
*C:	*	*	*C:	*	*C:	*	*C:	*	*C:	*
*M2/1	*	*	*M2/1	*	*M2/1	*	*M2/1	*	*M2/1	*
*met(C)	*	*	*met(C)	*	*met(C)	*	*met(C)	*	*met(C)	*
=1-	=1-	=1-	=1-	=1-	=1-	=1-	=1-	=1-	=1-	=1-
!	!	!LO:DY:a:t=Forte	!	!	!LO:TX:t=P:problem=kreska pseudotaktowa	!	!LO:TX:t=P:problem=kreska pseudotaktowa	!	!	!
4.C/	San-	f	4.C/	San-	1r	.	1r	.	2r	.
8D/	.	.	8D/	.	.	.	.	.	.	.
8E\L	.	.	8E\L	.	.	.	.	.	4r	.
8C\J	.	.	8C\J	.	.	.	.	.	.	.
*	*	*	*2\right	*	*	*	*	*	*	*
!LO:TX:t=P:problem=kreska pseudotaktowa	!	!	!	!	!	!	!	!	!LO:TX:t=P::problem=kreska pseudotaktowa&colon;między nutą a kropką	!
[<4F\	.	.	2F\	.	.	.	.	.	4.c/	San-
4F\]	.	.	.	.	2G/	San-	2r	.	.	.
.	.	.	.	.	.	.	.	.	8d/	.
4E\	.	.	4E\	.	.	.	.	.	8e/L	.
.	.	.	.	.	.	.	.	.	8c/J	.
!	!	!	!	!	!LO:TX:t=P:problem=kreska pseudotaktowa	!	!LO:TX:t=P:problem=kreska pseudotaktowa	!	!LO:TX:t=P::problem=kreska pseudotaktowa&colon;między nutą a kropką, z ligaturą	!
4.F\	.	.	4.F\	.	2A/	.	2c/	San-	2.f/	.
!LO:TX:t=P:problem=kreska pseudotaktowa	!	!	!LO:TX:t=P:problem=kreska pseudotaktowa	!	!	!	!	!	!	!
8E\	.	.	8E\	.	.	.	.	.	.	.
=2-	=2-	=2-	=2-	=2-	=2-	=2-	=2-	=2-	=2-	=2-
*	*	*	*	*	*2\right	*	*2\right	*	*	*
4D/	.	.	4D\	.	2B\	.	2d\	.	.	.
4G\	.	.	4G\	.	.	.	.	.	8e/L	.
.	.	.	.	.	.	.	.	.	8d/J	.
!LO:TX:t=P:global:problem=oddech jako rozdzielacz słów	!	!	!LO:TX:t=P:global:problem=oddech jako rozdzielacz słów	!	!	!	!LO:TX:t=P::problem=kreska pseudotaktowa&colon;między nutą a kropką, z ligaturą	!	!	!
4C,</	-ctus	.	4C,</	-ctus	1c	.	2.e\	.	4.g/	.
!LO:TX:t=P::problem=kreska pseudotaktowa&colon;między nutą a kropką,z ligaturą	!	!	!LO:TX:t=P::problem=kreska pseudotaktowa&colon;między nutą a kropką,z ligaturą	!	!	!	!	!	!	!
4.c\	San-	.	4.c\	San-	.	.	.	.	.	.
!	!	!	!	!	!	!	!	!	!LO:TX:t=P:problem=kreska pseudotaktowa	!
.	.	.	.	.	.	.	.	.	8f/	.
.	.	.	.	.	.	.	.	.	8e/L	.
8Bn\L	.	.	8B\L	.	.	.	.	.	8d/J	.
8A\	.	.	8A\	.	.	.	4.f\	.	2c/	.
8G\J	.	.	8G\J	.	.	.	.	.	.	.
!	!	!	!	!	!LO:TX:t=P:problem=kreska pseudotaktowa	!	!	!	!	!
4F\	.	.	4F\	.	2d\	.	.	.	.	.
.	.	.	.	.	.	.	8d\	.	.	.
!LO:TX:t=P:problem=kreska pseudotaktowa	!	!	!LO:TX:t=P:problem=kreska pseudotaktowa	!	!	!	!LO:TX:t=P::problem=kreska pseudotaktowa&colon;między nutą a kropką	!	!LO:TX:t=P:problem=kreska pseudotaktowa	!
4G\	.	.	4G\	.	.	.	4.g\	.	4B/	.
=3-	=3-	=3-	=3-	=3-	=3-	=3-	=3-	=3-	=3-	=3-
!	!	!	!	!	!LO:TX:t=P:problem=kreska pseudotaktowa	!	!	!	!LO:TX:t=P:global:problem=oddech jako rozdzielacz słów	!
4C,</	-ctus	.	4C,</	-ctus	1e	-ctus	.	.	2c,</	-ctus
.	.	.	.	.	.	.	8f\L	.	.	.
4.C/	San-	.	4.C/	San-	.	.	8e\	.	.	.
.	.	.	.	.	.	.	8d\J	.	.	.
!	!	!	!	!	!	!	!LO:TX:t=P:problem=kreska pseudotaktowa	!	!	!
.	.	.	.	.	.	.	2c/	.	4.g\	San-
8D/L	.	.	8D/L	.	.	.	.	.	.	.
8E/	.	.	8E/	.	.	.	.	.	.	.
*custos:G	*	*	*	*	*	*	*	*	*	*
!LO:TX:t=P:problem=kreska pseudotaktowa	!	!	!	!	!	!	!	!	!	!
!	!	!	!LO:TX:t=P:problem=kreska pseudotaktowa	!	!	!	!	!	!LO:TX:t=P:problem=kreska pseudotaktowa	!
8C/J	.	.	8C/J	.	.	.	.	.	8a\	.
!LO:LB:g=original	!	!	!	!	!LO:TX:t=P:problem=kreska pseudotaktowa	!	!	!	!	!
4G\	.	.	4G\	.	0r	.	4.d\	.	8b\L	.
.	.	.	.	.	.	.	.	.	8g\J	.
*2\right	*	*	*	*	*	*	*	*	*	*
2D\	.	.	2D\	.	.	.	.	.	4.a\	.
.	.	.	.	.	.	.	8e\	.	.	.
.	.	.	.	.	.	.	8f\L	.	.	.
.	.	.	.	.	.	.	8d\J	.	8b\	.
*	*	*	*	*	*	*	*	*	*2\right	*
!	!	!	!LO:TX:t=P:problem=kreska pseudotaktowa	!	!	!	!LO:TX:t=P::problem=kreska pseudotaktowa&colon;między nutą a kropką	!	!	!
8E\L	.	.	4E\	.	.	.	4.g\	.	2cc\	.
!LO:TX:t=P:problem=kreska pseudotaktowa	!	!	!	!	!	!	!	!	!	!
8F\J	.	.	.	.	.	.	.	.	.	.
=4-	=4-	=4-	=4-	=4-	=4-	=4-	=4-	=4-	=4-	=4-
2G\	.	.	2G\	.	.	.	.	.	.	.
.	.	.	.	.	.	.	8f\	.	.	.
.	.	.	.	.	.	.	4d\	.	4b\	.
!LO:TX:t=P:problem=kreska pseudotaktowa	!	!	!LO:TX:t=P:problem=kreska pseudotaktowa	!	!	!	!LO:TX:t=P:global:problem=oddech jako rozdzielacz słów	!	!LO:TX:t=P:problem=kreska pseudotaktowa	!
2C/	-ctus	.	2C/	-ctus	.	.	4e,<\	-ctus	2cc\	.
.	.	.	.	.	.	.	2c/	Do-	.	.
4r	.	.	4r	.	1e	Do-	.	.	2g/	-ctus
2C/	Do-	.	2C/	Do-	.	.	8e\	-mi-	.	.
.	.	.	.	.	.	.	8f\	-n(us)	.	.
.	.	.	.	.	.	.	4g\	De-	4r	.
!	!	!	!	!	!	!	!LO:TX:t=P:problem=kreska pseudotaktowa	!	!	!
8E\	-mi-	.	8E\	-mi-	.	.	4g\	-us	2g\	Do-
!LO:TX:t=P:problem=kreska pseudotaktowa	!	!	!LO:TX:t=P:problem=kreska pseudotaktowa	!	!	!	!	!	!	!
8F\	-n(us)	.	8F\	-nus	.	.	.	.	.	.
!	!	!	!LO:LB:g=original	!	!	!	!	!	!	!
=5-	=5-	=5-	=5-	=5-	=5-	=5-	=5-	=5-	=5-	=5-
!	!	!	!	!	!LO:TX:t=P:problem=kreska pseudotaktowa	!	!	!	!	!
4G\	De-	.	4G\	De-	1d	-mi-	4r	.	.	.
4G\	-us	.	4G\	-us	.	.	(4.d\	Sab-	8b\	-mi-
.	.	.	.	.	.	.	.	.	8cc\	-nus
4.D/	Sab-	.	4.D\	Sab-	.	.	.	.	4dd\	De-
.	.	.	.	.	.	.	8e\L	.	.	.
!	!	!	!	!	!	!	!	!	!LO:TX:t=P:problem=kreska pseudotaktowa	!
.	.	.	.	.	.	.	8f\	.	4dd\	-us
!LO:TX:t=P:problem=kreska pseudotaktowa	!	!	!LO:TX:t=P:problem=kreska pseudotaktowa	!	!	!	!LO:TX:t=P:problem=kreska pseudotaktowa	!	!	!
8E/	.	.	8E\	.	.	.	8g\J)	.	.	.
!	!	!	!	!	!LO:TX:t=P:problem=kreska pseudotaktowa	!	!	!	!LO:LB:g=original	!
!	!	!	!	!	!LO:TX:t=P:global:problem=oddech jako rozdzielacz słów	!	!	!	!	!
8F\L	.	.	8F\L	.	1c,<	-nus	4.a\	.	4.a\	Sab-
8G\J	.	.	8G\J	.	.	.	.	.	.	.
4.A\	.	.	4.A\	.	.	.	.	.	.	.
.	.	.	.	.	.	.	16g\LL	.	8b\	.
.	.	.	.	.	.	.	16f\JJ	.	.	.
!	!	!	!	!	!	!	!LO:LB:g=original	!	!	!
.	.	.	.	.	.	.	8e\L	.	8cc\L	.
16G\LL	.	.	16G\LL	.	.	.	8f\J	.	8dd\J	.
16F\JJ	.	.	16F\JJ	.	.	.	.	.	.	.
!	!	!	!	!	!	!	!LO:TX:t=P:problem=kreska pseudotaktowa	!	!LO:TX:t=P::problem=kreska pseudotaktowa&colon;między nutą a kropką	!
8E\L	.	.	8E\L	.	.	.	4g\	.	4.ee\	.
!LO:TX:t=P:problem=kreska pseudotaktowa	!	!	!LO:TX:t=P:problem=kreska pseudotaktowa	!	!	!	!	!	!	!
8F\J	.	.	8F\J	.	.	.	.	.	.	.
=6-	=6-	=6-	=6-	=6-	=6-	=6-	=6-	=6-	=6-	=6-
4G\	.	.	4G\	.	1B	De-	4.G/	.	.	.
.	.	.	.	.	.	.	.	.	16dd\LL	.
.	.	.	.	.	.	.	.	.	16cc\JJ	.
4.GG/	.	.	4.GG/	.	.	.	.	.	8b\L	.
.	.	.	.	.	.	.	8A/L	.	8cc\J	.
.	.	.	.	.	.	.	8B/	.	4dd\	.
8AA/L	.	.	8AA/L	.	.	.	8c/J	.	.	.
!	!	!	!	!	!	!	!LO:TX:t=P::problem=kreska pseudotaktowa&colon;między nutą a kropką,z ligaturą	!	!LO:TX:t=P::problem=kreska pseudotaktowa&colon;między nutą a kropką,z ligaturą	!
8BB/	.	.	8BB/	.	.	.	4.d/	.	4.d/	.
!LO:TX:t=P:problem=kreska pseudotaktowa	!	!	!LO:TX:t=P:problem=kreska pseudotaktowa	!	!	!	!	!	!	!
8C/J	.	.	8C/J	.	.	.	.	.	.	.
!LO:LB:g=original	!	!	!	!	!LO:TX:t=P:problem=kreska pseudotaktowa	!	!	!	!	!
4.D/	.	.	4.D/	.	1A	-us	.	.	.	.
.	.	.	.	.	.	.	16c/LL	.	8e/L	.
.	.	.	.	.	.	.	16B/JJ	.	.	.
.	.	.	.	.	.	.	8A/L	.	8f/	.
16C/LL	.	.	16C/LL	.	.	.	8B/J	.	8g/J	.
16BB/JJ	.	.	16BB/JJ	.	.	.	.	.	.	.
!	!	!	!	!	!	!	!LO:TX:t=P:problem=kreska pseudotaktowa	!	!	!
8AA/L	.	.	8AA/L	.	.	.	2c/	.	4.a\	.
8BB/	.	.	8BB/	.	.	.	.	.	.	.
8C/	.	.	8C/	.	.	.	.	.	.	.
!LO:TX:t=P:problem=kreska pseudotaktowa	!	!	!LO:TX:t=P:problem=kreska pseudotaktowa	!	!	!	!	!	!	!
8D/J	.	.	8D/J	.	.	.	.	.	16g/LL	.
!	!	!	!	!	!	!	!	!	!LO:TX:t=P:problem=kreska pseudotaktowa	!
.	.	.	.	.	.	.	.	.	16f/JJ	.
=7-	=7-	=7-	=7-	=7-	=7-	=7-	=7-	=7-	=7-	=7-
4.E\	.	.	4.E\	.	1.G	Sab-	4B/	.	8e/L	.
.	.	.	.	.	.	.	.	.	8f/	.
.	.	.	.	.	.	.	4e\	.	8g/	.
8F\	.	.	8F\	.	.	.	.	.	8a/J	.
4G\	.	.	4G\	.	.	.	4d\	.	8b\L	.
.	.	.	.	.	.	.	.	.	8g\J	.
!LO:TX:t=P:problem=kreska pseudotaktowa	!	!	!LO:TX:t=P:problem=kreska pseudotaktowa	!	!	!	!LO:TX:t=P:problem=kreska pseudotaktowa	!	!	!
4C/	.	.	4C/	.	.	.	4e\	.	2cc\	.
2.G\	.	.	2.GG/	.	.	.	2.d\	.	.	.
.	.	.	.	.	.	.	.	.	8b\L	.
.	.	.	.	.	.	.	.	.	8a\J	.
.	.	.	.	.	2G/	-ba-	.	.	4.b\	.
!LO:TX:t=P:problem=kreska pseudotaktowa	!	!	!	!	!	!	!	!	!	!
4GG/	-ba-	.	4GG/	-ba-	.	.	4d\	-ba-	.	.
.	.	.	.	.	.	.	.	.	8b\	-ba-
=8-	=8-	=8-	=8-	=8-	=8-	=8-	=8-	=8-	=8-	=8-
!	!	!	!	!	!	!	!	!	!LO:TX:t=P:problem=kreska pseudotaktowa	!
1C	-oth	.	1C	-oth	1G	-oth	1e	-oth.	1ccl	-oth
!	!	!	!LO:LB:g=original	!	!	!	!	!	!LO:LB:g=original	!
=||	=||	=||	=||	=||	=||	=||	=||	=||	=||	=||
*met(C)	*	*	*met(C)	*	*met(C)	*	*met(C)	*	*met(C)	*
!LO:TX:t=P:problem=kreska pseudotaktowa	!	!	!LO:TX:t=P:problem=kreska pseudotaktowa	!	!LO:TX:t=P:problem=kreska pseudotaktowa	!	!	!	!LO:TX:t=P:problem=kreska pseudotaktowa	!
!	!	!	!LO:TX:a:t=Canon	!	!LO:TX:a:t=Ca\nnon	!	!LO:TX:a:t=Ca\nnon	!	!LO:TX:a:t=Ca\nnon	!
1r	.	.	1r	.	1r	.	1c	Ple-	1r	.
=9-	=9-	=9-	=9-	=9-	=9-	=9-	=9-	=9-	=9-	=9-
!	!	!	!	!	!	!	!LO:TX:t=P:problem=kreska pseudotaktowa	!	!	!
4r	.	.	4r	.	1G	Ple-	1e	-ni	2r	.
2C/	Ple-	.	2C/	Ple-	.	.	.	.	.	.
.	.	.	.	.	.	.	.	.	4r	.
(8E\L	-ni	.	8E\L	-ni	.	.	.	.	2g/	Ple-
!LO:TX:t=P:problem=kreska pseudotaktowa	!	!	!LO:TX:t=P:problem=kreska pseudotaktowa	!	!	!	!	!	!	!
8F\J)	ſunt	.	8F\J	ſunt	.	.	.	.	.	.
!	!	!	!	!	!LO:TX:t=P:problem=kreska pseudotaktowa	!	!	!	!	!
4G,<\	.	.	4G\	.	1B	-ni	1d	ſunt	.	.
4.GG/	Cae-	.	4.GG/	Cae-	.	.	.	.	8b\	-ni
.	.	.	.	.	.	.	.	.	8cc\	ſunt
.	.	.	.	.	.	.	.	.	4dd\	Cae-
8AA/L	.	.	8AA/L	.	.	.	.	.	.	.
!	!	!	!	!	!	!	!	!	!LO:TX:t=P::problem=kreska pseudotaktowa&colon;między nutą a kropką	!
8BB/	.	.	8BB/	.	.	.	.	.	4.d/	.
!LO:TX:t=P:problem=kreska pseudotaktowa	!	!	!LO:TX:t=P:problem=kreska pseudotaktowa	!	!	!	!	!	!	!
8C/J	.	.	8C/J	.	.	.	.	.	.	.
!	!	!	!	!	!LO:LB:g=original	!	!	!	!	!
=10-	=10-	=10-	=10-	=10-	=10-	=10-	=10-	=10-	=10-	=10-
!	!	!	!	!	!	!	!LO:TX:t=P:problem=kreska pseudotaktowa	!	!	!
4D,<\	-li	.	4D\	-li	1A,<	sunt	1f	Cae-	.	.
.	.	.	.	.	.	.	.	.	8e/L	.
*custos:D	*	*	*	*	*	*	*	*	*	*
4D\	Ple	.	2D\	Ple-	.	.	.	.	8f/	.
.	.	.	.	.	.	.	.	.	8g/J	.
!LO:LB:g=original	!	!	!	!	!	!	!	!	!	!
(8D\L	ni-	.	.	.	.	.	.	.	4a\	-li
8E\J)	.	.	.	.	.	.	.	.	.	.
8F\	-sunt	.	8F\	-ni	.	.	.	.	2a\	Ple-
!LO:TX:t=P:problem=kreska pseudotaktowa	!	!	!LO:TX:t=P:problem=kreska pseudotaktowa	!	!	!	!	!	!	!
8G\	.	.	8G\	ſunt	.	.	.	.	.	.
!	!	!	!	!	!LO:TX:t=P:problem=kreska pseudotaktowa	!	!	!	!	!
4A\	cae-	.	4A\	Cae-	1c	Cae-	1e	-li	.	.
4.AA/	.	.	4.AA/	.	.	.	.	.	8cc\	-ni
.	.	.	.	.	.	.	.	.	8dd\	ſunt
.	.	.	.	.	.	.	.	.	4ee\	Cae-
8BB/L	.	.	8BB/L	.	.	.	.	.	.	.
!	!	!	!	!	!	!	!	!	!LO:TX:t=P::problem=kreska pseudotaktowa&colon;między nutą a kropką	!
8C/	.	.	8C/	.	.	.	.	.	4.e/	.
!LO:TX:t=P:problem=kreska pseudotaktowa	!	!	!LO:TX:t=P:problem=kreska pseudotaktowa	!	!	!	!	!	!	!
8D/J	.	.	8D/J	.	.	.	.	.	.	.
=11-	=11-	=11-	=11-	=11-	=11-	=11-	=11-	=11-	=11-	=11-
4E,<\	-li	.	4E\	-li	1B	-li	2r	.	.	.
.	.	.	.	.	.	.	.	.	8f/L	.
4E\	et	.	4E\	et	.	.	.	.	8g/	.
.	.	.	.	.	.	.	.	.	8a/J	.
!LO:TX:a:t=P:problem=mixed beam	!	!	!LO:TX:a:t=P:problem=mixed beam	!	!	!	!LO:TX:t=P:problem=kreska pseudotaktowa	!	!	!
8G\L	ter-	.	8G\L	ter-	.	.	2g\	et	4b\	-li
8F\	.	.	8F\	.	.	.	.	.	.	.
!	!	!	!	!	!	!	!	!	!LO:TX:t=P:problem=kreska pseudotaktowa	!
8G\	.	.	8G\	.	.	.	.	.	4b\	et
!LO:TX:t=P:problem=kreska pseudotaktowa	!	!	!LO:TX:t=P:problem=kreska pseudotaktowa	!	!	!	!	!	!	!
8GG/J	.	.	8GG/J	.	.	.	.	.	.	.
!	!	!	!	!	!	!	!LO:LB:g=original	!	!LO:TX:a:t=P:problem=mixed beam	!
2.D\	.	.	2.D\	.	2r	.	1f	ter-	8dd\L	ter-
.	.	.	.	.	.	.	.	.	8cc\	.
.	.	.	.	.	.	.	.	.	8dd\	.
.	.	.	.	.	.	.	.	.	8d/J	.
!	!	!	!	!	!	!	!	!	!LO:TX:t=P::problem=kreska pseudotaktowa&colon;między nutą a kropką, z ligaturą	!
.	.	.	.	.	2d\	et	.	.	2.a\	.
!LO:TX:t=P:problem=kreska pseudotaktowa	!	!	!	!	!	!	!	!	!	!
4E\	.	.	4E\	.	.	.	.	.	.	.
=12-	=12-	=12-	=12-	=12-	=12-	=12-	=12-	=12-	=12-	=12-
!	!	!	!	!	!	!	!LO:TX:t=P:problem=kreska pseudotaktowa	!	!LO:N:xstem:cue	!
2F\	.	.	2F\	.	1c	ter-	1a	-ra	.	.
.	.	.	.	.	.	.	.	.	4b\)	.
!	!	!	!	!	!	!	!	!	!LO:TX:t=P:problem=kreska pseudotaktowa	!
4FF,</	-ra	.	4FF,</	-ra	.	.	.	.	2cc\	.
!LO:TX:t=P::problem=kreska pseudotaktowa&colon;między nutą a kropką,z ligaturą	!	!	!LO:TX:t=P::problem=kreska pseudotaktowa&colon;między nutą a kropką	!	!	!	!	!	!	!
4.AA/	glo-	.	4.AA/	glo-	.	.	.	.	.	.
!	!	!	!	!	!LO:TX:t=P:problem=kreska pseudotaktowa	!	!	!	!	!
.	.	.	.	.	1e	-ra	2r	.	4c/	-ra
8BB/L	.	.	8BB/L	.	.	.	.	.	.	.
8C/	.	.	8C/	.	.	.	.	.	4.e/	glo-
*	*	*	*custos:E	*	*	*	*	*	*	*
8D/J	.	.	8D/J	.	.	.	.	.	.	.
!	!	!	!LO:LB:g=original	!	!	!	!	!	!	!
4.E\	.	.	4.E\	.	.	.	1g	glo-	.	.
.	.	.	.	.	.	.	.	.	8f/L	.
.	.	.	.	.	.	.	.	.	8g/	.
!LO:TX:t=P:problem=kreska pseudotaktowa	!	!	!LO:TX:t=P:problem=kreska pseudotaktowa	!	!	!	!	!	!LO:TX:t=P:problem=kreska pseudotaktowa	!
8F\	.	.	8F\	.	.	.	.	.	8a/J	.
!	!	!	!	!	!	!	!	!	!LO:LB:g=original	!
=13-	=13-	=13-	=13-	=13-	=13-	=13-	=13-	=13-	=13-	=13-
4.G\	.	.	4.G\	.	2r	.	.	.	4.b\	.
16F\LL	.	.	16F\LL	.	.	.	.	.	8cc\	.
16E\JJ	.	.	16E\JJ	.	.	.	.	.	.	.
4D\	.	.	4D\	-ri-	1d	glo-	1f	-ri-	4.dd\	.
!LO:TX:t=P:problem=kreska pseudotaktowa	!	!	!LO:TX:t=P:problem=kreska pseudotaktowa	!	!	!	!	!	!	!
4E\	-ri-	.	4E\	.	.	.	.	.	.	.
.	.	.	.	.	.	.	.	.	16cc\LL	.
!	!	!	!	!	!	!	!	!	!LO:TX:t=P:problem=kreska pseudotaktowa	!
.	.	.	.	.	.	.	.	.	16b\JJ	.
!LO:LB:g=original	!	!	!	!	!	!	!	!	!	!
4F\	-a	.	4F\	-a	.	.	.	.	4a\	ri-
4D\	.	.	4D\	.	.	.	.	.	4b\	.
!LO:TX:a:t=P:problem=mixed beam	!	!	!LO:TX:a:t=P:problem=mixed beam	!	!	!	!	!	!	!
8A\L	tu-	.	8A\L	tu-	1c	-ri-	1e	-a	4cc\	-a
8AA/	.	.	8AA/	.	.	.	.	.	.	.
!	!	!	!	!	!	!	!	!	!LO:TX:t=P:problem=kreska pseudotaktowa	!
8C/	.	.	8C/	.	.	.	.	.	4a\	.
!LO:TX:t=P:problem=kreska pseudotaktowa	!	!	!LO:TX:t=P:problem=kreska pseudotaktowa	!	!	!	!	!	!	!
8D/J	.	.	8D/J	.	.	.	.	.	.	.
=14-	=14-	=14-	=14-	=14-	=14-	=14-	=14-	=14-	=14-	=14-
!	!	!	!	!	!	!	!	!	!LO:TX:a:t=P:problem=mixed beam	!
4E\	.	.	4E\	.	.	.	.	.	8ee\L	tu-
.	.	.	.	.	.	.	.	.	8e/	.
4C/	.	.	4C/	.	.	.	.	.	8g/	.
.	.	.	.	.	.	.	.	.	8a/J	.
4G,<\	a	.	4G,<\	-a	1B	-a	1d	tu-	4b\	.
!LO:TX:t=P:problem=kreska pseudotaktowa	!	!	!LO:TX:t=P:problem=kreska pseudotaktowa	!	!	!	!	!	!LO:TX:t=P:problem=kreska pseudotaktowa	!
4G\	O-	.	4G\	o-	.	.	.	.	4g/	.
4.D\	-san-	.	4.D\	-ſan-	.	.	.	.	4dd\	-a
.	.	.	.	.	.	.	.	.	4dd\	o-
8E\	-na	.	8E\	.	.	.	.	.	.	.
!	!	!	!	!	!	!	!LO:TX:t=P:problem=kreska pseudotaktowa	!	!	!
8F\L	.	.	8F\L	.	1A	tu-	2c/	.	4.a\	-ſan-
8G\J	.	.	8G\J	.	.	.	.	.	.	.
!LO:TX:t=P:problem=kreska pseudotaktowa	!	!	!	!	!	!	!	!	!	!
[<4A\	in	.	2A\	.	.	.	.	.	.	.
!	!	!	!	!	!	!	!	!	!LO:TX:t=P:problem=kreska pseudotaktowa	!
!	!	!	!	!	!	!	!	!	!LO:TX:t=P:problem=cross-measure beam	!
.	.	.	.	.	.	.	.	.	8b\	.
=15-	=15-	=15-	=15-	=15-	=15-	=15-	=15-	=15-	=15-	=15-
4A\]	.	.	.	.	.	.	1c	-a	8cc\L	.
.	.	.	.	.	.	.	.	.	8dd\J	.
4AA/	ex-	.	4AA/	-na	.	.	.	.	2ee\	.
!	!	!	!	!	!LO:TX:t=P:problem=kreska pseudotaktowa	!	!	!	!	!
4.C/	-cel-	.	4.C/	in	2G/	.	.	.	.	.
!	!	!	!	!	!	!	!	!	!LO:TX:t=P:problem=kreska pseudotaktowa	!
.	.	.	.	.	.	.	.	.	4e/	-na
!LO:TX:t=P:problem=kreska pseudotaktowa	!	!	!LO:TX:t=P:problem=kreska pseudotaktowa	!	!	!	!	!	!	!
8D/	.	.	8D/	ex-	.	.	.	.	.	.
8E\L	.	.	8E\L	-cel-	1G	-a	2r	.	4.g\	in
8F\J	.	.	8F\J	.	.	.	.	.	.	.
2G\	.	.	2G\	.	.	.	.	.	.	.
.	.	.	.	.	.	.	.	.	8a\L	ex-
!	!	!	!	!	!	!	!LO:TX:t=P:problem=kreska pseudotaktowa	!	!	!
.	.	.	.	.	.	.	2d\	o-	8b\	.
.	.	.	.	.	.	.	.	.	8cc\J	.
!LO:TX:t=P:problem=kreska pseudotaktowa	!	!	!LO:TX:t=P:problem=kreska pseudotaktowa	!	!	!	!	!	!	!
4GG/	.	.	4GG/	-ſis	.	.	.	.	2dd\	.
=16-	=16-	=16-	=16-	=16-	=16-	=16-	=16-	=16-	=16-	=16-
2D\	-sis	.	2D/	.	2r	.	2f\	-ſan-	.	.
.	.	.	.	.	.	.	.	.	4d/	-cel-
!	!	!	!	!	!LO:TX:t=P:problem=kreska pseudotaktowa	!	!	!	!LO:TX:t=P:problem=kreska pseudotaktowa	!
4r	.	.	4r	.	2A/	o-	4.c\	-na	2a\	-ſis
!LO:TX:t=P:problem=kreska pseudotaktowa	!	!	!	!	!	!	!	!	!	!
[<4F\	O-	.	2F\	o-	.	.	.	.	.	.
.	.	.	.	.	.	.	16d\LL	.	.	.
!	!	!	!	!	!	!	!LO:TX:t=P:problem=kreska pseudotaktowa	!	!	!
.	.	.	.	.	.	.	16e\JJ	.	.	.
4F\]	.	.	.	.	2c\	-ſan-	4f\	.	4r	.
4.C/	-ſan-	.	4.C/	-ſan-	.	.	8e\L	.	2cc\	o-
.	.	.	.	.	.	.	8d\J	.	.	.
.	.	.	.	.	4.G\	.	4e\	.	.	.
8D\	.	.	8D/	.	.	.	.	.	.	.
!LO:TX:t=P:problem=kreska pseudotaktowa	!	!	!	!	!	!	!	!	!	!
[<4E\	.	.	2E\	.	.	.	2e\	in	4.g\	-san-
.	.	.	.	.	16A\LL	.	.	.	.	.
!	!	!	!	!	!LO:TX:t=P:problem=kreska pseudotaktowa	!	!	!	!	!
.	.	.	.	.	16B\JJ	.	.	.	.	.
=17-	=17-	=17-	=17-	=17-	=17-	=17-	=17-	=17-	=17-	=17-
4E\]	.	.	.	.	4c\	.	.	.	.	.
.	.	.	.	.	.	.	.	.	8a\	.
*custos:GG	*	*	*custos:GG	*	*	*	*	*	*	*
4G\	-na	.	4G\	-na	8B\L	.	2d\	ex-	2b\	.
.	.	.	.	.	8A\J	.	.	.	.	.
!LO:LB:g=original	!	!	!LO:LB:g=original	!	!	!	!	!	!	!
8GG/L	in	.	8GG/L	in	4B\	-na	.	.	.	.
8AA/	.	.	8AA/	.	.	.	.	.	.	.
!	!	!	!	!	!	!	!	!	!LO:TX:t=P:problem=kreska pseudotaktowa	!
8BB/	.	.	8BB/	.	2B\	in	2g\	-cel-	4dd\	-na
!LO:TX:t=P:problem=kreska pseudotaktowa	!	!	!LO:TX:t=P:problem=kreska pseudotaktowa	!	!	!	!	!	!	!
8C/J	.	.	8C/J	.	.	.	.	.	.	.
!	!	!	!	!	!	!	!	!	!LO:LB:g=original	!
2.D\	.	.	2.D/	.	.	.	.	.	8d/L	in
.	.	.	.	.	.	.	.	.	8e/	.
.	.	.	.	.	2A/	ex-	8f\L	.	8f/	ex-
.	.	.	.	.	.	.	8e\J	.	8g/J	.
!	!	!	!	!	!	!	!LO:TX:t=P:problem=kreska pseudotaktowa	!	!LO:TX:t=P::problem=kreska pseudotaktowa&colon;między nutą a kropką	!
.	.	.	.	.	.	.	2f\	.	2.a\	.
!LO:TX:t=P:problem=kreska pseudotaktowa	!	!	!LO:TX:t=P:problem=kreska pseudotaktowa	!	!	!	!	!	!	!
4D\	ex-	.	4D/	.	2d\	-cel-	.	.	.	.
=18-	=18-	=18-	=18-	=18-	=18-	=18-	=18-	=18-	=18-	=18-
2.AA/	-cel-	.	2.AA/	ex-	.	.	2e\	-sis	.	.
.	.	.	.	.	8c\L	.	.	.	4a\	.
.	.	.	.	.	8B\J	.	.	.	.	.
.	.	.	.	.	2c\	.	4a\	in	2.e/	-cel-
!LO:TX:t=P:problem=kreska pseudotaktowa	!	!	!	!	!	!	!LO:TX:t=P::problem=kreska pseudotaktowa&colon;między nutą a kropką,z ligaturą	!	!	!
[4C/	.	.	2C/	-cel-	.	.	4.g\	ex-	.	.
4C/]	.	.	.	.	0.c;;l	-ſis	.	.	.	.
.	.	.	.	.	.	.	8f\	.	.	.
*	*	*	*	*	*	*	*custos:c	*	*	*
8D\L	.	.	8D\L	.	.	.	4e\	.	2g/	.
8E\J	.	.	8E\J	.	.	.	.	.	.	.
!LO:TX:t=P::problem=kreska pseudotaktowa&colon;między nutą a kropką,z ligaturą	!	!	!LO:TX:t=P::problem=kreska pseudotaktowa&colon;między nutą a kropką	!	!	!	!LO:LB:g=original	!	!	!
2.F\	.	.	2.F\	.	.	.	4c\	-cel-	.	.
.	.	.	.	.	.	.	8f\	.	8a\L	.
!	!	!	!	!	!	!	!LO:TX:t=P:problem=kreska pseudotaktowa	!	!LO:TX:t=P:problem=kreska pseudotaktowa	!
.	.	.	.	.	.	.	8g\	.	8b\J	.
=19-	=19-	=19-	=19-	=19-	=19-	=19-	=19-	=19-	=19-	=19-
.	.	.	.	.	.	.	4.a\	.	2.cc\	.
4FF/	.	.	4FF/	.	.	.	.	.	.	.
.	.	.	.	.	.	.	16g\LL	.	.	.
.	.	.	.	.	.	.	16f\JJ	.	.	.
4.AA/	.	.	4.AA/	.	.	.	4e\	.	.	.
.	.	.	.	.	.	.	4a\	.	4c/	.
8BB/	.	.	8BB/	.	.	.	.	.	.	.
1C;l	-sis.	.	1Cl;;	-sis.	.	.	1gl;;	-sis.	1el	-sis
=20||-	=20||-	=20||-	=20||-	=20||-	=20||-	=20||-	=20||-	=20||-	=20||-	=20||-
*M2/1	*	*	*M2/1	*	*M2/1	*	*M2/1	*	*M2/1	*
*met(C)	*	*	*met(C)	*	*met(C)	*	*met(C)	*	*met(C)	*
!	!	!	!LO:TX:a:t=Benedict(us) ut Et incarnat(us).	!	!LO:TX:a:t=Benedict(us) ut Et incarnatus.	!	!LO:TX:a:t=Benedict(us) ut Et incarnat(us).	!	!LO:TX:a:t=Benedict(us) ut Et incarnat(us).	!
4r	.	.	4ryy	.	4ryy	.	4ryy	.	4ryy	.
2C/	Be-	.	2C/yy	Be-	2c\yy	.	2e\yy	.	2g/yy	.
!LO:TX:t=P:problem=kreska pseudotaktowa	!	!	!	!	!	!	!	!	!	!
4C/	-ne-	.	8C/yy	-ne-	8c\yy	.	8e\yy	.	8g/yy	.
!	!	!	!LO:TX:t=P:problem=kreska pseudotaktowa	!	!LO:TX:t=P:problem=kreska pseudotaktowa	!	!LO:TX:t=P:problem=kreska pseudotaktowa	!	!LO:TX:t=P:problem=kreska pseudotaktowa	!
.	.	.	8C/yy	.	8c\yy	.	8e\yy	.	8g/yy	.
!	!	!	!	!	!	!	!	!	!LO:LB:g=original	!
4C/	-di-	.	4C/yy	.	4c\yy	.	4e\yy	.	4g/yy	.
4D/	.	.	4D/yy	-di-	4A\yy	.	4d\yy	.	4f/yy	.
4AA/,<	-ct(us)	.	4AA/,<yy	-ctus	4A\yy	.	4c#X\yy	.	4e/yy	.
!LO:TX:t=P:problem=kreska pseudotaktowa	!	!	!LO:TX:t=P:problem=kreska pseudotaktowa	!	!LO:TX:t=P:problem=kreska pseudotaktowa	!	!LO:TX:t=P:problem=kreska pseudotaktowa	!	!LO:TX:t=P:problem=kreska pseudotaktowa	!
4A\yy	qui	.	4A\yy	qui	4c\yy	.	4e\yy	.	4a\yy	.
=21	=21	=21	=21	=21	=21	=21	=21	=21	=21	=21
(4.G\	ve-	.	4.G\yy	ve-	4.d\yy	.	4.g\yy	.	4.b\yy	.
8F\)	.	.	8F\yy	.	8d\yy	.	8g\yy	.	8b\yy	.
!	!	!	!LO:TX:t=P:problem=kreska pseudotaktowa	!	!LO:TX:t=P:problem=kreska pseudotaktowa	!	!LO:TX:t=P:problem=kreska pseudotaktowa	!	!LO:TX:t=P:problem=kreska pseudotaktowa	!
4E\,<	-nit	.	2E\yy	-nit in	2e\yy	.	2g\yy	.	2cc\yy	.
!LO:TX:t=P:problem=kreska pseudotaktowa	!	!	!	!	!	!	!	!	!	!
4E\	in	.	.	.	.	.	.	.	.	.
!LO:LB:g=original	!	!	!	!	!	!	!	!	!	!
4F\	N(o-	.	(y2F\yy	N(omi)ne	8d\Lyy	.	2f\yy	.	2a/yy	.
.	.	.	.	.	8c\Jyy	.	.	.	.	.
8F\	-mi)-	.	.	.	2c\yy	.	.	.	.	.
8F\	-ne	.	.	.	.	.	.	.	.	.
!	!	!	!LO:TX:t=P:problem=kreska pseudotaktowa	!	!	!	!LO:TX:t=P:problem=kreska pseudotaktowa	!	!LO:TX:t=P:problem=kreska pseudotaktowa	!
4.G\	Do-	.	2G\)yy	Do-mi-	.	.	2d\yy	.	2g/yy	.
!	!	!	!	!	!LO:TX:t=P:problem=kreska pseudotaktowa	!	!	!	!	!
.	.	.	.	.	4B\yy	.	.	.	.	.
!LO:TX:t=P:problem=kreska pseudotaktowa	!	!	!	!	!	!	!	!	!	!
8GG/	-mi-	.	.	.	.	.	.	.	.	.
!	!	!	!LO:LB:g=original	!	!	!	!	!	!	!
=22	=22	=22	=22	=22	=22	=22	=22	=22	=22	=22
2C/	-ni	.	2C/yy	-ni	4c\,<yy	.	4e\yy	.	4g/yy	.
.	.	.	.	.	2c\yy	.	2e\yy	.	2g/yy	.
!LO:TX:t=P:problem=kreska pseudotaktowa	!	!	!LO:TX:t=P:problem=kreska pseudotaktowa	!	!	!	!	!	!	!
2r	.	.	2ryy	.	.	.	.	.	.	.
!	!	!	!	!	!LO:TX:t=P:problem=kreska pseudotaktowa	!	!LO:TX:t=P:problem=kreska pseudotaktowa	!	!LO:TX:t=P:problem=kreska pseudotaktowa	!
.	.	.	.	.	4B\yy	.	4d\yy	.	4g/yy	.
!	!	!	!LO:TX:t=P:problem=kreska pseudotaktowa	!	!	!	!LO:PB:g=original	!	!	!
1r	.	.	1ryy	.	4A/yy	.	8e\yy	.	4cc\yy	.
.	.	.	.	.	.	.	8e\yy	.	.	.
.	.	.	.	.	4G/yy	.	2e\yy	.	4b\yy	.
!	!	!	!	!	!LO:LB:g=original	!	!	!	!	!
.	.	.	.	.	4.F/yy	.	.	.	4.a\yy	.
!	!	!	!	!	!	!	!LO:TX:t=P:problem=kreska pseudotaktowa	!	!	!
.	.	.	.	.	.	.	4d\yy	.	.	.
!	!	!	!	!	!LO:TX:t=P:problem=kreska pseudotaktowa	!	!	!	!LO:TX:t=P:problem=kreska pseudotaktowa	!
.	.	.	.	.	8F/yy	.	.	.	8a\yy	.
=23	=23	=23	=23	=23	=23	=23	=23	=23	=23	=23
2r	.	.	2ryy	.	2E/yy	.	2e\yy	.	2g#X/yy	.
4r	.	.	4ryy	.	4ryy	.	4ryy	.	4ryy	.
!LO:TX:t=P:problem=kreska pseudotaktowa	!	!	!LO:TX:t=P:problem=kreska pseudotaktowa	!	!LO:TX:t=P:problem=kreska pseudotaktowa	!	!LO:TX:t=P:problem=kreska pseudotaktowa	!	!LO:TX:t=P:problem=kreska pseudotaktowa	!
4C/	qui	.	4C/yy	qui	4e\yy	.	4g\yy	.	4cc\yy	.
4GG/	ve-	.	4GG/yy	ve-	4d\yy	.	4g\yy	.	4b\yy	.
8GG/,	-nit	.	4GG/yy	-nit in	4d\yy	.	4g\yy	.	4b\yy	.
8GG/	in	.	.	.	.	.	.	.	.	.
4.D\	N(o-	.	4.D/yy	No-	8d\Lyy	.	4.f\yy	.	4.a\yy	.
.	.	.	.	.	16c\Lyy	.	.	.	.	.
.	.	.	.	.	16B\JJyy	.	.	.	.	.
!	!	!	!	!	!LO:TX:t=P::problem=kreska pseudotaktowa&colon;między nutą a kropką, z ligaturą	!	!	!	!	!
.	.	.	.	.	4.A\yy	.	.	.	.	.
!	!	!	!	!	!	!	!	!	!LO:TX:t=P:problem=kreska pseudotaktowa	!
16C/	-mi)-	.	16C/LLyy	.	.	.	16e\LLyy	.	8b\yy	.
!LO:TX:t=P:problem=kreska pseudotaktowa	!	!	!LO:TX:t=P:problem=kreska pseudotaktowa	!	!	!	!LO:TX:t=P:problem=kreska pseudotaktowa	!	!	!
16BB/	-ne	.	16BB/JJyy	.	.	.	16d\JJyy	.	.	.
=24	=24	=24	=24	=24	=24	=24	=24	=24	=24	=24
4.AA/	Do-	.	4.AA/yy	-mi-	.	.	4e\yy	.	4.cc\yy	.
.	.	.	.	.	8B\yy	.	.	.	.	.
.	.	.	.	.	4.c\yy	.	4e\yy	.	.	.
8BB/	.	.	8BB/yy	-ne	.	.	.	.	16b\LLyy	.
.	.	.	.	.	.	.	.	.	16a\JJyy	.
4.C/	.	.	4.C/yy	Do--	.	.	4.e\yy	.	4gny/yy	.
.	.	.	.	.	16B\LLyy	.	.	.	.	.
.	.	.	.	.	16A\JJyy	.	.	.	.	.
!	!	!	!	!	!LO:TX:t=P:problem=kreska pseudotaktowa	!	!	!	!	!
.	.	.	.	.	4G/yy	.	.	.	2cc\yy	.
16BB/LL	.	.	16BB/LLyy	.	.	.	16d\LLyy	.	.	.
!LO:TX:t=P:problem=kreska pseudotaktowa	!	!	!LO:TX:t=P:problem=kreska pseudotaktowa	!	!	!	!LO:TX:t=P:problem=kreska pseudotaktowa	!	!	!
16AA/JJ	.	.	16AA/JJyy	.	.	.	16cny\JJyy	.	.	.
2.GG/	.	.	2.GG/yy	.	1G/yy	.	2.d\yy	.	.	.
.	.	.	.	.	.	.	.	.	8b\Lyy	.
.	.	.	.	.	.	.	.	.	8a\Jyy	.
!	!	!	!	!	!	!	!	!	!LO:PB:g=original	!
.	.	.	.	.	.	.	.	.	4.b\yy	.
4GG/	-mi-	.	4GG/yy	-mi	.	.	4d\yy	.	.	.
!	!	!	!	!	!	!	!	!	!LO:TX:t=P:problem=kreska pseudotaktowa	!
.	.	.	.	.	.	.	.	.	8b\yy	.
=25	=25	=25	=25	=25	=25	=25	=25	=25	=25	=25
!LO:N:vis=1	!	!	!	!	!	!	!	!	!	!
!LO:TX:t=P:problem=kreska pseudotaktowa	!	!	!	!	!	!	!	!	!LO:TX:t=P:problem=kreska pseudotaktowa	!
0C/	-ni	.	0C/lyy	-ni.	0G;;l/yy	.	0el\yy	.	0cc\lyy	.
=26	=26	=26	=26	=26	=26	=26	=26	=26	=26	=26
*M3/2	*	*	*M3/2	*	*M3/2	*	*M3/2	*	*M3/2	*
!	!	!	!LO:TX:a:t=Osanna ut Et reſurrexit.	!	!LO:TX:a:t=Osanna ut Et reſurrexit.	!	!LO:TX:a:t=Osanna ut Et reſurrexit.	!	!LO:TX:a:t=Osanna ut Et reſurrexit.	!
2C/	O-	.	2C/yy	O-	2c\yy	.	2e\yy	2.O-	2g\yy	.
4C/	-san-	.	2C/yy	-san-	2c\yy	.	2e\yy	-san-	2g\yy	.
4BB/	.	.	.	.	.	.	.	.	.	.
!LO:TX:t=P:problem=kreska pseudotaktowa	!	!	!LO:TX:t=P:problem=kreska pseudotaktowa	!	!LO:TX:t=P:problem=kreska pseudotaktowa	!	!LO:TX:t=P:problem=kreska pseudotaktowa	!	!LO:TX:t=P:problem=kreska pseudotaktowa	!
2AA/	-na	.	2AA/yy	-na	2c\yy	.	2f#X\yy	-na	2a\yy	.
=27	=27	=27	=27	=27	=27	=27	=27	=27	=27	=27
1GG	in	.	1GGyy	in	1dyy	.	1gyy	in	1byy	.
!LO:TX:t=P:problem=kreska pseudotaktowa	!	!	!LO:TX:t=P:problem=kreska pseudotaktowa	!	!LO:TX:t=P:problem=kreska pseudotaktowa	!	!LO:TX:t=P:problem=kreska pseudotaktowa	!	!LO:TX:t=P:problem=kreska pseudotaktowa	!
2GG/	ex-	.	2GG/yy	ex-	2d\yy	.	2g\yy	ex-	2b\yy	.
!LO:LB:g=original	!	!	!	!	!LO:LB:g=original	!	!	!	!	!
=28	=28	=28	=28	=28	=28	=28	=28	=28	=28	=28
2C/	-cel-	.	2.C/yy	-cel-	2.c\yy	.	2.e\yy	-cel-	2.g\yy	.
2C,/	-ſis	.	.	.	.	.	.	.	.	.
.	.	.	4C/yy	.	4c\yy	.	4e\yy	.	4g\yy	.
!LO:TX:t=P:problem=kreska pseudotaktowa	!	!	!LO:TX:t=P:problem=kreska pseudotaktowa	!	!LO:TX:t=P:problem=kreska pseudotaktowa	!	!LO:TX:t=P:problem=kreska pseudotaktowa	!	!LO:TX:t=P:problem=kreska pseudotaktowa	!
2C/	O-	.	2C/yy	.	2c\yy	.	2e\yy	-ſis	2g\yy	.
!	!	!	!	!	!	!	!LO:LB:g=original	!	!	!
=29	=29	=29	=29	=29	=29	=29	=29	=29	=29	=29
2F\	-san-	.	2FF/yy	.	2cyy	.	2fny\yy	.	2a\yy	.
2F,\	-na	.	2FF,</yy	-sis	2cyy	.	2f\yy	.	2a\yy	.
!LO:TX:t=P:problem=kreska pseudotaktowa	!	!	!LO:TX:t=P:problem=kreska pseudotaktowa	!	!LO:TX:t=P:problem=kreska pseudotaktowa	!	!LO:TX:t=P:problem=kreska pseudotaktowa	!	!LO:TX:t=P:problem=kreska pseudotaktowa	!
2F\	in	.	2F\yy	.	2cyy	.	2f\yy	.	2a\yy	.
=30	=30	=30	=30	=30	=30	=30	=30	=30	=30	=30
(1C	ex-	.	1Cyy	.	1cyy	.	1eyy	.	1gyy	.
!LO:TX:t=P:problem=kreska pseudotaktowa	!	!	!LO:TX:t=P:problem=kreska pseudotaktowa	!	!LO:TX:t=P:problem=kreska pseudotaktowa	!	!LO:TX:t=P:problem=kreska pseudotaktowa	!	!LO:TX:t=P:problem=kreska pseudotaktowa	!
2D)\	.	.	2D\yy	.	2A/yy	.	2d\yy	.	2f#X/yy	.
=31	=31	=31	=31	=31	=31	=31	=31	=31	=31	=31
2E\	-cel-	.	2E\yy	.	2Gyy	.	2c#X/yy	.	1gyy	.
!LO:TX:t=P:problem=kreska pseudotaktowa	!	!	!LO:TX:t=P:problem=kreska pseudotaktowa	!	!LO:TX:t=P:problem=kreska pseudotaktowa	!	!	!	!	!
1D	.	.	1Dyy	.	1Ayy	.	1dyy	.	.	.
!	!	!	!	!	!	!	!	!	!LO:TX:t=P:problem=kreska pseudotaktowa	!
.	.	.	.	.	.	.	.	.	2f#X/yy	.
=32	=32	=32	=32	=32	=32	=32	=32	=32	=32	=32
2GG,</	-sis,	.	2GG/yy	.	1Byy	.	1dyy	.	2g\yy	.
2G\	in	.	2G\yy	.	.	.	.	.	2g\yy	.
!LO:TX:t=P:problem=kreska pseudotaktowa	!	!	!LO:TX:t=P:problem=kreska pseudotaktowa	!	!LO:TX:t=P:problem=kreska pseudotaktowa	!	!LO:TX:t=P:problem=kreska pseudotaktowa	!	!LO:TX:t=P:problem=kreska pseudotaktowa	!
2E\	ex-	.	2E\yy	.	2ryy	.	2ryy	.	2g\yy	.
!	!	!	!	!	!	!	!	!	!LO:LB:g=original	!
=33	=33	=33	=33	=33	=33	=33	=33	=33	=33	=33
4F\	-cel-	.	4F\yy	.	0.ryy	.	2ryy	.	2a\yy	.
4G\	.	.	4G\yy	.	.	.	.	.	.	.
4A\	.	.	4A\yy	.	.	.	2f\yy	.	2a\yy	.
4F\	.	.	4F\yy	.	.	.	.	.	.	.
!LO:TX:t=P:problem=kreska pseudotaktowa	!	!	!LO:TX:t=P:problem=kreska pseudotaktowa	!	!	!	!LO:TX:t=P:problem=kreska pseudotaktowa	!	!LO:TX:t=P:problem=kreska pseudotaktowa	!
2G\	.	.	2G\yy	.	.	.	2d\yy	.	2b\yy	.
=34	=34	=34	=34	=34	=34	=34	=34	=34	=34	=34
1C,<	-sis,	.	1Cyy	.	.	.	4e\yy	.	2cc\yy	.
.	.	.	.	.	.	.	4f\yy	.	.	.
.	.	.	.	.	.	.	4g\yy	.	2cc\yy	.
.	.	.	.	.	.	.	4e\yy	.	.	.
!LO:TX:t=P:problem=kreska pseudotaktowa	!	!	!	!	!	!	!LO:TX:t=P:problem=kreska pseudotaktowa	!	!LO:TX:t=P:problem=kreska pseudotaktowa	!
2BB/	in	.	2BB/yy	.	.	.	2g\yy	.	2dd\yy	.
!	!	!	!LO:LB:g=original	!	!	!	!	!	!	!
=35	=35	=35	=35	=35	=35	=35	=35	=35	=35	=35
!	!	!	!	!	!	!	!LO:TX:t=P:problem=kreska pseudotaktowa	!	!	!
4AA/	ex-	.	4AA/yy	.	2ryy	.	1.cnyyy	.	2ee\yy	.
4BB/	.	.	4BB/yy	.	.	.	.	.	.	.
4C/	.	.	4C/yy	.	2ryy	.	.	.	2ee\yy	.
4D/	.	.	4D/yy	.	.	.	.	.	.	.
!	!	!	!	!	!LO:TX:t=P:problem=kreska pseudotaktowa	!	!	!	!	!
4E\	.	.	4E\yy	.	2eyy	.	.	.	2ryy	.
!LO:TX:t=P:problem=kreska pseudotaktowa	!	!	!LO:TX:t=P:problem=kreska pseudotaktowa	!	!	!	!	!	!	!
4F\	.	.	4F\yy	.	.	.	.	.	.	.
=36	=36	=36	=36	=36	=36	=36	=36	=36	=36	=36
1G	-cel-	.	1Gyy	.	2dyy	.	2B/yy	.	1.ryy	.
!	!	!	!	!	!LO:TX:t=P:problem=kreska pseudotaktowa	!	!LO:TX:t=P:problem=kreska pseudotaktowa	!	!	!
.	.	.	.	.	1cyy	.	1Ayy	.	.	.
!LO:TX:t=P:problem=kreska pseudotaktowa	!	!	!LO:TX:t=P:problem=kreska pseudotaktowa	!	!	!	!	!	!	!
!LO:TX:t=P:problem=# above	!	!	!	!	!	!	!	!	!	!
2F#X\	.	.	2F#X\yy	.	.	.	.	.	.	.
!LO:LB:g=original	!	!	!	!	!	!	!	!	!	!
=37	=37	=37	=37	=37	=37	=37	=37	=37	=37	=37
1G,<	-sis	.	1G,<yy	.	4Byy	.	1dyy	.	2ryy	.
.	.	.	.	.	4cyy	.	.	.	.	.
.	.	.	.	.	4dyy	.	.	.	2ryy	.
.	.	.	.	.	4Byy	.	.	.	.	.
!LO:TX:t=P:problem=kreska pseudotaktowa	!	!	!LO:TX:t=P:problem=kreska pseudotaktowa	!	!	!	!LO:TX:t=P:problem=kreska pseudotaktowa	!	!LO:TX:t=P:problem=kreska pseudotaktowa	!
2A\	O-	.	2A\yy	.	4cyy	.	2ryy	.	2cc\yy	.
!	!	!	!	!	!LO:TX:t=P:problem=kreska pseudotaktowa	!	!	!	!	!
.	.	.	.	.	4dyy	.	.	.	.	.
=38	=38	=38	=38	=38	=38	=38	=38	=38	=38	=38
!	!	!	!	!	!	!	!LO:TX:t=P:problem=kreska pseudotaktowa	!	!	!
2G\	-san-	.	2G\yy	.	1eyy	.	1.ryy	.	2b\yy	.
!LO:TX:t=P:problem=kreska pseudotaktowa	!	!	!LO:TX:t=P:problem=kreska pseudotaktowa	!	!	!	!	!	!LO:TX:t=P:problem=kreska pseudotaktowa	!
1Fny	-na	.	1Fnyyy	.	.	.	.	.	1ayy	.
.	.	.	.	.	2dyy	.	.	.	.	.
=39	=39	=39	=39	=39	=39	=39	=39	=39	=39	=39
(4E\	in	.	4E\yy	.	1e,<yy	.	1gyy	.	4g\yy	.
4F)\	.	.	4F\yy	.	.	.	.	.	4a\yy	.
4G\	.	.	4G\yy	.	.	.	.	.	4b\yy	.
(4E\	ex-	.	4E\yy	.	.	.	.	.	4g\yy	.
!	!	!	!	!	!LO:TX:t=P:problem=kreska pseudotaktowa	!	!LO:TX:t=P:problem=kreska pseudotaktowa	!	!	!
4F)\	.	.	4F\yy	.	2dyy	.	2f\yy	.	4a\yy	.
!LO:TX:t=P:problem=kreska pseudotaktowa	!	!	!LO:TX:t=P:problem=kreska pseudotaktowa	!	!	!	!	!	!LO:TX:t=P:problem=kreska pseudotaktowa	!
4G\	.	.	4G\yy	.	.	.	.	.	4b\yy	.
=40	=40	=40	=40	=40	=40	=40	=40	=40	=40	=40
!	!	!	!	!	!	!	!LO:TX:t=P:problem=kreska pseudotaktowa	!	!	!
1A	-cel-	.	1Ayy	.	2.cyy	.	1.eyy	.	1ccyy	.
.	.	.	.	.	4dyy	.	.	.	.	.
!LO:TX:t=P:problem=kreska pseudotaktowa	!	!	!LO:TX:t=P:problem=kreska pseudotaktowa	!	!LO:TX:t=P:problem=kreska pseudotaktowa	!	!	!	!	!
2G#X\	.	.	2G#X\yy	.	2eyy	.	.	.	2b\yy	.
!	!	!	!	!	!LO:LB:g=original	!	!	!	!	!
=41	=41	=41	=41	=41	=41	=41	=41	=41	=41	=41
!	!	!	!	!	!LO:TX:t=P:problem=kreska pseudotaktowa	!	!	!	!LO:TX:t=P:problem=kreska pseudotaktowa	!
2.A\	.	.	2.A\yy	.	1.cyy	.	2.e\yy	.	1.ayy	.
4Gny\	.	.	4Gny\yy	.	.	.	4e\yy	.	.	.
!LO:TX:t=P:problem=kreska pseudotaktowa	!	!	!LO:TX:t=P:problem=kreska pseudotaktowa	!	!	!	!LO:TX:t=P:problem=kreska pseudotaktowa	!	!	!
2F\	.	.	2F\yy	.	.	.	2f\yy	.	.	.
=42	=42	=42	=42	=42	=42	=42	=42	=42	=42	=42
2D\	.	.	2D\yy	.	2dyy	.	2f\yy	.	1ayy	.
!LO:TX:t=P:problem=kreska pseudotaktowa	!	!	!LO:TX:t=P:problem=kreska pseudotaktowa	!	!LO:TX:t=P:problem=kreska pseudotaktowa	!	!LO:TX:t=P:problem=kreska pseudotaktowa	!	!	!
1E	.	.	1Eyy	.	1Byy	.	1eyy	.	.	.
!	!	!	!	!	!	!	!	!	!LO:TX:t=P:problem=kreska pseudotaktowa	!
.	.	.	.	.	.	.	.	.	2g#X/yy	.
!	!	!	!	!	!	!	!LO:LB:g=original	!	!	!
=43	=43	=43	=43	=43	=43	=43	=43	=43	=43	=43
0.AA;l	-sis.	.	0.AA;yy	.	0.c#Xyy	.	0.elyy	.	0.ayy	.
==	==	==	==	==	==	==	==	==	==	==
*-	*-	*-	*-	*-	*-	*-	*-	*-	*-	*-
!!!system-decoration: [s1,s2,s3,s4]s5
!!!RDF**kern: < = below
!!!RDF**kern: l = terminal long
!!!ENC: Berenika Jozajtis
!!!END: 2021-07-03
!!!ENC: Marta Lawrence
!!!END: 2021-07-27
!!!YEC: Copyright 2022 Narodowy Instytut Fryderyka Chopina (https://polishscores.org)
!!!YEM: License CC-BY-4.0 (https://creativecommons.org/licenses/by/4.0)
